X:1
T: Rolling off a Log
C:
R:Jig
Q:180
K:C
M:6/8
L:1/16
ce|g4^f2 a4f2|g2e2c2 c2B2c2|d2B2G2 G2A2B2|c2d2^d2 e2f2^f2|
g4^f2 a4f2|g2e2c2 c2B2c2|d2B2G2 G2A2B2|c2g2e2 c6z2|
|:B2d2g2 g2f2g2|B2d2g2 g2f2g2|f2g2a2 a2g2f2|a2g2e2 d2^c2=c2|
B2d2g2 g2f2g2|B2d2g2 g2f2g2|f2g2a2 a2g2f2|1g6 e2d2c2:|2g6 g4ce|
g4^f2 a4f2|g2e2c2 c2B2c2|d2B2G2 G2A2B2|c2d2^d2 e2f2^f2|
g4^f2 a4f2|g2e2c2 c2B2c2|d2B2G2 G2A2B2|c6c4||
